src/pos-icons/arrow-bottom-right.svg

<svg height="24" viewBox="0 0 24 24" width="24" xmlns="http://www.w3.org/2000/svg"><path d="m5 6.41 1.41-1.41 10.59 10.59v-6.59h2v10h-10v-2h6.59z"/></svg>

<?xml version="1.0" encoding="UTF-8"?><!DOCTYPE svg PUBLIC "-//W3C//DTD SVG 1.1//EN" "http://www.w3.org/Graphics/SVG/1.1/DTD/svg11.dtd"><svg xmlns="http://www.w3.org/2000/svg" xmlns:xlink="http://www.w3.org/1999/xlink" version="1.1" id="mdi-arrow-bottom-right" width="24" height="24" viewBox="0 0 24 24"><path d="M5,6.41L6.41,5L17,15.59V9H19V19H9V17H15.59L5,6.41Z" /></svg>
